X:1
T:      The Book of Common Prayer, Collect for the Sunday Next Before Advent, alt.
T:David Cameron
T:Stir  up, O Lord
%%score ( 1 2 ) ( 3 4 ) { ( 5 6 9 ) | ( 7 8 10 ) }
L:1/8
Q:1/4=96
M:4/4
K:Eb
V:1 treble nm="MusicXML Part"
V:2 treble 
V:3 bass nm="MusicXML Part"
V:4 bass 
V:5 treble nm="MusicXML Part"
V:6 treble 
V:9 treble 
V:7 bass 
V:8 bass 
V:10 bass 
V:1
"^Con moto"!mf! z8 | z2 F2 c2- B2 |[M:3/4] e4 f2 | g4 f2 |[M:4/4] (e3 d) c2 e2 |[M:3/4] B4 A2 | %6
w: |Stir up, _|Lord, stir|up the|wills _ of your|faith- ful|
[M:4/4] B4 B4 |[M:3/2]"^cres." z4 z2 A2 c4 |[M:3/4] f3 e d2 | z6 |[M:4/4]!f! f3 e c2 z2 | z8 | %12
w: peo- ple,|that they|plen- teous- ly,||plen- teous- ly||
!f! z4!f! z2 dc |[M:3/2] g3 f e4 e2 d2 |[M:4/4] c6 z2 |[M:3/2] z4 z4 c2 d2 |[M:3/4] e4 f2 | %17
w: bring- ing|forth the fruit of good|works,|may by|you be|
[M:5/4]!>(! g4 (fe) c4!>)! |[M:4/4]!mf! e6 (dc) |[M:3/4]!>(! B4 c2!>)! |[M:4/4] d4!p!"^ten." G4 | %21
w: plen- teous- * ly,|plen teous- *|ly re-|ward- ed;|
!mf! z8 |[M:3/2]!mf! z2 c2 e4 d2 c2 |[M:4/4] B6 B2 | c2 G4 G2 | d6 z2 ||[K:Emin]!f! g2 f2 (f2 e2) | %27
w: |through Je- sus the|Christ, who|lives now and|reigns,|reigns with you _|
 e2 d2 e4- |[M:4/2]!>(! e2 d2 B4"^ten." G8!>)!!p! || %29
w: and the Ho|_ ly Spi- rit,|
[M:3/4][Q:1/4=80]"^More broadly"[Q:1/4=80][Q:1/4=80] z6 | z4!f! e2 | d4 z2 ||[K:Eb] z6 | z6!f! | %34
w: |One|God,|||
[M:4/4]!f! (3:2:2z2 A (3cBA e2 d2- | d2"^dim." (cB) c4 |[M:3/4] z2!mp! z2 c2 |[M:4/4] A4 e4 | %38
w: for ev- er and ev- er.|_ A _ men.|A-|men, A-|
!p! B8 |] %39
w: men.|
V:2
 z2 E2 A4- | A3 A G4- |[M:3/4] (A2- AG) c2 | G4 G2 |[M:4/4] G4 F2 F2 |[M:3/4] (C2 D2) E2 | %6
w: ||||||
w: Stir up,|_ O Lord,|up _ _ O|Lord, the|wills of your|faith- * ful|
[M:4/4] E4 E4 |[M:3/2] z2 C2 F4 (F2 G2) |[M:3/4] F2 B2 F2 | x6 |[M:4/4] G2 G2 F2 x2 | x8 | %12
w: ||||||
w: peo- ple,|that they, they _|plen- teous- ly,||plen- teous- ly||
 z2 FE A3 G |[M:3/2] (c2 B2) G4 G2 F2 |[M:4/4] (D2 C4) x2 |[M:3/2] x4 F2 G2 A4 |[M:3/4] G4 c2 | %17
w: |||||
w: bring- ing forth the|fruit, _ fruit of good|works, *|may by you|_ be|
[M:5/4] (d2 c2) A2 (G2 F2) |[M:4/4] z2 F4 G2 |[M:3/4] F4 B2 |[M:4/4] G4 D4 | z2 E2 A4 | %22
w: |||||
w: plen _ teous- ly, _|plen teous-|ly re-|ward ed;|through Je|
[M:3/2] G2 F2 G4 (E2 F2) |[M:4/4] (F2 D2) _D4 | G4 C4 | G6 x2 ||[K:Emin] G3 G (A2 B2) | %27
w: |||||
w: sus the Christ, the _|Christ, _ who|lives and|reigns,|reigns with you _|
 A2 A2 (A3"^dim." G) |[M:4/2] F4 F4 ^C8 ||[M:3/4] x6 | x4 (BA) | =F4 x2 ||[K:Eb] x6 | %33
w: ||||||
w: and the Ho _|ly Spi rit,||One _|God,||
 z2 z2 (3:2:2z2 E |[M:4/4] (3GFE (3AGA- (3(AGF) GE | F2 E2 E4 |[M:3/4] x4 F2 | %37
w: ||||
w: for|ev- er and ev- er A _ _ _ men, A|_ _ men.|A-|
[M:4/4] E6!>(! F2!>)! | G8 |] %39
w: ||
w: men, A-|men.|
V:3
 z4 z2 C2 | (F,4 G,2) G,2 |[M:3/4] (E2 D2) C2 | (=B,2 C2) D2 |[M:4/4] D4 C2 C2 |[M:3/4] A,4 C2 | %6
w: Stir|up, _ O|stir up O|Lord _ the|wills of your|faith- ful|
[M:4/4] B,4 B,4 |[M:3/2] z2"^cres." F,2 (A,4 C4) |[M:3/4] B,2 E2 C2 | z6 | %10
w: peo- ple,|that they _|plen- teous- ly,||
[M:4/4] (D2 E)C E2!f! DB, | E3 D C2 DB, | C6 D2 |[M:3/2] (C4 D2) C2 (B,2 A,2) | %14
w: plen _ teous- ly bring- ing|forth the fruit of good|works, the|fruit _ of good _|
[M:4/4] (F,2 E,4) z2 |[M:3/2] z4 A,2 C2 F4 |[M:3/4] (C4 D2) |[M:5/4] (F2!>(! E2) C2 E4!>)! | %18
w: works, _|may by you|be _|plen _ teous- ly,|
[M:4/4]!mf! x2 (C2 D2) E2 |[M:3/4] (C2 D2) E2 |[M:4/4] =B,4!p! B,4 | z8 | %22
w: plen _ teous-|ly _ re-|ward- ed,||
[M:3/2] z2!mf! A,2 (C2 D2) E2 C2 |[M:4/4] B,4 A,4 | C4 =A,4 | =B,6 z2 ||[K:Emin] D2 D2 (C2 B,2) | %27
w: through Je _ sus the|Christ, who|lives and|reigns,|reigns with you _|
 C2 B,2 (B,2"^dim." ^C2- |[M:4/2] C2)!>(! B,2 A,4 (B,4!>)!!p!"^ten." A,4) ||[M:3/4] z6 | z4 C2 | %31
w: and the Ho _|_ ly Spi rit, _|||
 _B,4 z2 ||[K:Eb]!f! x6 |!f! C2 DC (3EDC |[M:4/4] A,2 A,2 (3(CB,A,) B,(G, | %35
w: ||One God for ev- er and|ev- er, A _ _ men, A-|
 (3CB,_A, E2) (B,2 A,2) |[M:3/4] z2 z2 A,2 |[M:4/4] C6!>(! C2!>)! |!p! B,8 |] %39
w: * * * * men. _||||
V:4
 z2 E,2 A,4- | A,3 F, (E,2 D,2) |[M:3/4] (C2 B,2) A,2 | (G,2 =A,2) =B,2 | %4
w: ||||
w: Stir up,|_ O Lord, _|up, _ O|Lord _ the|
[M:4/4] (C2 _B,2) A,2 A,2 |[M:3/4] A,4 F,2 |[M:4/4] G,6 G,2 |[M:3/2] z4 z2 F,2 E,4 | %8
w: ||||
w: wills _ of your|faith- ful|peo- ple,|that they|
[M:3/4] D,2 C,2 A,2 | x6 |[M:4/4] C,2 C,2 A,2 B,A, | G,2 F,2 A,2 F,2 | (E,2 A,2) C2 B,2 | %13
w: |||||
w: plen- teous- ly,||plen- teous- ly bring- ing|forth the fruit of|good _ works, the|
[M:3/2] A,2 G,2 C,4 G,4 |[M:4/4] C,6 x2 |[M:3/2] z4 z4 F,2 A,2 |[M:3/4] (C2 B,2) A,2 | %17
w: ||||
w: fruit _ of good|works,|may by|you _ be|
[M:5/4] C,4 C2 (B,2 A,2) |[M:4/4] z2 (A,2 B,2) B,2 |[M:3/4] A,4 G,2 |[M:4/4] F,4 F,4 | z2 E,2 A,4 | %22
w: |||||
w: plen _ teous- ly,|plen _ teous|ly re-|ward ed;|through Je|
[M:3/2] G,2 F,2 C,4 B,,2 A,,2 |[M:4/4] G,,4 F,4 | E,4 E,4 | D,6 x2 ||[K:Emin] B,,3 B, (A,2 G,2) | %27
w: |||||
w: sus the Christ, the _|Christ who|lives and|reigns,|reigns with you _|
 F,2 F,2 E,4 |[M:4/2] D,4 E,4 E,8 ||[M:3/4] x6 | x4 A,2 | _B,4 x2 ||[K:Eb] F,2 G,F, (3B,=A,G, | %33
w: ||||||
w: and the Ho|ly Spi rit,||One||One God, for ev- er and|
 F,2 F,2 C,2 |[M:4/4] F,3 F, E,2 G,2 | (3(=A,G,F, G,2) C,4 |[M:3/4] x4 C,2 |[M:4/4] E,6 A,2 | %38
w: |||||
w: ev- er, One|God for ev- er,|A _ _ _ men.|A|men, A-|
 E,8 |] %39
w: |
w: men.|
V:5
!mf! G4 A4- | A4 c2 d2 |[M:3/4] e4 c2 | d6 |[M:4/4] [DEG]4 [CF]4 |[M:3/4] B4 A2 | %6
[M:4/4] z2 (e2 d2 e2 |[M:3/2] c4 F4) c4 |[M:3/4] B2 A2 F2 |!<(! (g3 f e!<)!d) | %10
[M:4/4]!f! f3 e c2 B2- | B2 A2 F2 A2- | A2 z2 z2 dc |[M:3/2] c2 B2 G4 B4 |[M:4/4] G6 (GE) | %15
[M:3/2] F4 c6 d2 |[M:3/4] [Ge]4 [cf]2 |[M:5/4] d2!>(! c2 A2 c4!>)! |[M:4/4] G2 F4 G2 | %19
[M:3/4]!>(!!>(! f4 z2!>)!!>)! |[M:4/4]!p! x8 | G4 A4 |[M:3/2] c4 e4 d2 c2 |[M:4/4] B8 | G4 z4 | %25
 z4!f! (=ag =e2 ||[K:Emin] g4) z4 | z4 A3"^dim." G |[M:4/2] F8"^ten." [^CG]8!p! || %29
[M:3/4]"^More broadly" x6 |"^cres." A4 BA | z2!f! =f2!>(! e2!>)! ||[K:Eb]!mf! ([Dd]4!mp! g2 | %33
 f4) (c2 |[M:4/4] e2 c2 (3ABc d2-) | d2"^dim." (e2 c4) |[M:3/4]!mp! x6 |[M:4/4] E4!>(! (c4!>)! | %38
 B8) |] %39
V:6
 G,4 C2 E2 | C4 G4- |[M:3/4] A3 G F2 | x6 |[M:4/4] x8 |[M:3/4] C2 D2 E2 |[M:4/4] E8 | %7
[M:3/2] C8 F2 G2 |[M:3/4] F2 E2 C2 | =A2 =B2 F2 |[M:4/4] G4 F4 | E3 D C2 DB, | C2 FE A3 G | %13
[M:3/2] G3 F E4 G2 F2 |[M:4/4] F2 E6 |[M:3/2] F6 G2 A4 |[M:3/4] x6 |[M:5/4] G4 E2 G2 F2 | %18
[M:4/4] E2 C2 D2 E2 |[M:3/4] F4 E2 |[M:4/4] [DG]4"^ten." D4 | G,4 C2 E2 |[M:3/2] G2 F2 G6 C2 | %23
[M:4/4] F2 D2 _D4 | C4 x4 | x4 =B2 =A2 ||[K:Emin] G4 x4 | x4 E4- |[M:4/2] E2 D2 B,4 x8 || %29
[M:3/4] [B,G]6 | E4 E2 | x2 !tenuto!c_B !tenuto!GA- ||[K:Eb] A2 G4 | c2 B2 G2- | %34
[M:4/4] (3GFE A2 A2 G2 | F2 B2 E4 |[M:3/4] z2 [A,CF]4 |[M:4/4] C4 E2 F2 | G8 |] %39
V:7
 E,4 F,4 | A,2 F,2 G,4 |[M:3/4] [CE]2 [B,D]2 [A,C]2 | [G,=B,]2 [=A,C]2 [B,D]2 |[M:4/4] C2 B,2 A,4 | %5
[M:3/4] A,4 C2 |[M:4/4] B,8 |[M:3/2] F,8"^cres." [E,C]4 |[M:3/4] D,2 C,2 A,2 | C2 D2 G,2 | %10
[M:4/4] D2 EC E2 D2 | G,2 F,2 A,2 F,2 | G,2 F,2 C2 [B,D]2 |[M:3/2] C4 D2 C2 B,2 A,2 | %14
[M:4/4] D2 C6 |[M:3/2] C2 F,G, A,2 C2 F4 |[M:3/4] C2 B,2 [A,D]2 |[M:5/4] F2 E2 C2 B,2 A,2 | %18
[M:4/4]!mf! G,2 A,2 B,4 |[M:3/4] C2 D2 E2 |[M:4/4] [F,=B,]8 |!mf! [B,,E,]4 F,4 | %22
[M:3/2] E,2 F,2 G,2 B,2 G,2 F,2 |[M:4/4] B,4 A,4 | G,4 z4 | z4 D2 C2 ||[K:Emin] D4 z4 | %27
 z4 B,2 ^C2- |[M:4/2]!>(! C2 B,2 A,4 B,4!>)!"^ten." A,4 ||[M:3/4] E,2"^Add\n\n" (D,E, A,G,- | %30
 G,=F, A,B, C2) | z2 ED _B,C ||[K:Eb] F,2!>(! G,F,!>)! B,2 | C2 DC (3EDC |[M:4/4] A,2 F,2 C2 B,2 | %35
 F,2 B,4 A,2 |[M:3/4] z6 |[M:4/4] A,2 (E,4 !tenuto!A,2 |!p! !tenuto!B,8) |] %39
V:8
 [E,,-B,,]8 | E,,6 D,,2 |[M:3/4] [C,,C]4 z2 | z6 |[M:4/4] z8 |[M:3/4] E,,4 F,,2 |[M:4/4] G,,8 | %7
[M:3/2] A,,8 z4 |[M:3/4] z6 | G,,4 =B,,2 |[M:4/4] C,4 A,2 B,A, | x8 | x8 |[M:3/2] A,2 G,2 C,4 G,4 | %14
[M:4/4] C,6 B,,2 |[M:3/2] A,,8 F,,4 |[M:3/4] C,,6- |[M:5/4] C,,8- C,,2- |[M:4/4] C,,4 z4 | %19
[M:3/4] A,4 G,2 |[M:4/4] z4!mf! G,,2 F,,2 | E,,8 |[M:3/2] A,,4 C,4 B,,2 A,,2 |[M:4/4] G,,4 F,,4 | %24
 E,,4 x4 | z2 !tenuto!D,,2 (G,,2 C,2 ||[K:Emin] =B,,4) x4 | x4 E,4 |[M:4/2] D,4 E,4 E,,8 || %29
[M:3/4] G,,6 | =F,,6 | z2 G,,2 A,,2 ||[K:Eb] B,,4 G,,2 | A,,4 C,2 |[M:4/4] F,,4 E,,4 | %35
 A,,2 G,,2 C,4 |[M:3/4] E,,6- |[M:4/4] E,,8- | E,,8 |] %39
V:9
 x8 | x8 |[M:3/4] x6 | x6 |[M:4/4] x8 |[M:3/4] x6 |[M:4/4] x8 |[M:3/2] x12 |[M:3/4] x6 | x6 | %10
[M:4/4] d2 c2 x4 | x8 | x8 |[M:3/2] x12 |[M:4/4] x8 |[M:3/2] x12 |[M:3/4] x6 |[M:5/4] x10 | %18
[M:4/4] x8 |[M:3/4] x6 |[M:4/4] x8 | x8 |[M:3/2] x12 |[M:4/4] x8 | x8 | x8 ||[K:Emin] x8 | x8 | %28
[M:4/2] x16 ||[M:3/4] x6 | x6 | x6 ||[K:Eb] x6 | x6 |[M:4/4] x8 | x8 |[M:3/4] x6 |[M:4/4] x8 | %38
 x8 |] %39
V:10
 x8 | x8 |[M:3/4] x6 | x6 |[M:4/4] x8 |[M:3/4] x6 |[M:4/4] x8 |[M:3/2] x12 |[M:3/4] x6 | x6 | %10
[M:4/4] x8 | z2 F,,6 | E,,2 A,,2 z4 |[M:3/2] x12 |[M:4/4] x8 |[M:3/2] x12 |[M:3/4] x6 | %17
[M:5/4] x10 |[M:4/4] x8 |[M:3/4] x6 |[M:4/4] x8 | x8 |[M:3/2] x12 |[M:4/4] x8 | x8 | x8 || %26
[K:Emin] x8 | x8 |[M:4/2] x16 ||[M:3/4] x6 | x6 | x6 ||[K:Eb] x6 | x6 |[M:4/4] x8 | x8 | %36
[M:3/4] x6 |[M:4/4] x8 | x8 |] %39

